!!!COM: Corelli, Arcangelo
!!!OTL: 
!!!ONM: Opus 6, No. 7
!!!OMV: 2
!!!CDT: 1653/2/17/-1713/1/8/
!!!OCY: Italia
**kern	**kern	**kern	**kern	**kern	**kern	**kern
*clefC	*clefG	*clefG	*clefG	*clefC	*clefG	*clefG
*k[f#c#]	*k[f#c#]	*k[f#c#]	*k[f#c#]	*k[f#c#]	*k[f#c#]	*k[f#c#]
*D:	*D:	*D:	*D:	*D:	*D:	*D:
*M3/4	*M3/4	*M3/4	*M3/4	*M3/4	*M3/4	*M3/4
=1	=1	=1	=1	=1	=1	=1
4D	4f#	4dd	4dd	4D	4dd	8d
.	.	.	.	.	.	8d
2r	2r	2r	2r	2r	2r	8f#
.	.	.	.	.	.	8f#
.	.	.	.	.	.	8a
.	.	.	.	.	.	8a
=2	=2	=2	=2	=2	=2	=2
2.r	2.r	2.r	2.r	2.r	8d	4dd
.	.	.	.	.	8d	.
.	.	.	.	.	8f#	2r
.	.	.	.	.	8f#	.
.	.	.	.	.	8a	.
.	.	.	.	.	8a	.
=3	=3	=3	=3	=3	=3	=3
2.r	2.r	2.r	2.r	2.r	4dd	12f#
.	.	.	.	.	.	12d
.	.	.	.	.	.	12f#
.	.	.	.	.	2r	12a
.	.	.	.	.	.	12f#
.	.	.	.	.	.	12a
.	.	.	.	.	.	12dd
.	.	.	.	.	.	12a
.	.	.	.	.	.	12dd
=4	=4	=4	=4	=4	=4	=4
2.r	2.r	2.r	2.r	2.r	12f#	4ff#
.	.	.	.	.	12d	.
.	.	.	.	.	12f#	.
.	.	.	.	.	12a	2r
.	.	.	.	.	12f#	.
.	.	.	.	.	12a	.
.	.	.	.	.	12dd	.
.	.	.	.	.	12a	.
.	.	.	.	.	12dd	.
=5	=5	=5	=5	=5	=5	=5
2.r	2.r	2.r	2.r	2.r	4ff#	8a
.	.	.	.	.	.	8a
.	.	.	.	.	2r	8dd
.	.	.	.	.	.	8dd
.	.	.	.	.	.	8ff#
.	.	.	.	.	.	8ff#
=6	=6	=6	=6	=6	=6	=6
2.r	2.r	2.r	2.r	2.r	8a	4aa
.	.	.	.	.	8a	.
.	.	.	.	.	8dd	2r
.	.	.	.	.	8dd	.
.	.	.	.	.	8ff#	.
.	.	.	.	.	8ff#	.
=7	=7	=7	=7	=7	=7	=7
2.r	2.r	2.r	2.r	2.r	4aa	12dd
.	.	.	.	.	.	12a
.	.	.	.	.	.	12dd
.	.	.	.	.	2r	12ff#
.	.	.	.	.	.	12dd
.	.	.	.	.	.	12ff#
.	.	.	.	.	.	12aa
.	.	.	.	.	.	12ff#
.	.	.	.	.	.	12aa
=8	=8	=8	=8	=8	=8	=8
2.r	2.r	2.r	2.r	2.r	12dd	4ddd
.	.	.	.	.	12a	.
.	.	.	.	.	12dd	.
.	.	.	.	.	12ff#	2r
.	.	.	.	.	12dd	.
.	.	.	.	.	12ff#	.
.	.	.	.	.	12aa	.
.	.	.	.	.	12ff#	.
.	.	.	.	.	12aa	.
=9	=9	=9	=9	=9	=9	=9
2.r	2.r	2.r	8d	2.r	4ddd	8d
.	.	.	8d	.	.	8d
.	.	.	8f#	.	2r	8f#
.	.	.	8f#	.	.	8f#
.	.	.	8a	.	.	8a
.	.	.	8a	.	.	8a
=10	=10	=10	=10	=10	=10	=10
2.r	2.r	8d	8dd	2.r	8d	8dd
.	.	8d	8a	.	8d	8a
.	.	8f#	8dd	.	8f#	8dd
.	.	8f#	8f#	.	8f#	8f#
.	.	8a	8e	.	8a	8e
.	.	8a	8cc#	.	8a	8cc#
=11	=11	=11	=11	=11	=11	=11
8D	8a	8dd	8d	8D	8dd	8d
8D	8a	8a	16ff#	8D	8a	16ff#
.	.	.	16gg	.	.	16gg
8F#	8a	8dd	16aa	8F#	8dd	16aa
.	.	.	16bb	.	.	16bb
8F#	8a	8f#	16aa	8F#	8f#	16aa
.	.	.	16bb	.	.	16bb
8A	8a	8e	16gg	8A	8e	16gg
.	.	.	16aa	.	.	16aa
8A	8a	8cc#	16gg	8A	8cc#	16gg
.	.	.	16aa	.	.	16aa
=12	=12	=12	=12	=12	=12	=12
4d	8a	8d	8ff#	4d	8d	8ff#
.	8a	16ff#	16dd	.	16ff#	16dd
.	.	16gg	16ee	.	16gg	16ee
4F#	8dd	16aa	16ff#	4F#	16aa	16ff#
.	.	16bb	16gg	.	16bb	16gg
.	8dd	16aa	16ff#	.	16aa	16ff#
.	.	16bb	16gg	.	16bb	16gg
4A	8dd	16gg	16ee	4A	16gg	16ee
.	.	16aa	16ff#	.	16aa	16ff#
.	8cc#	16gg	16ee	.	16gg	16ee
.	.	16aa	16ff#	.	16aa	16ff#
=13	=13	=13	=13	=13	=13	=13
4D	8dd	8ff#	8dd	4D	8ff#	8dd
.	8d	16dd	16ff#	.	16dd	16ff#
.	.	16ee	16gg	.	16ee	16gg
4FF#	8d	16ff#	16aa	4FF#	16ff#	16aa
.	.	16gg	16bb	.	16gg	16bb
.	8d	16ff#	16aa	.	16ff#	16aa
.	.	16gg	16bb	.	16gg	16bb
4AA	8d	16ee	16gg	4AA	16ee	16gg
.	.	16ff#	16aa	.	16ff#	16aa
.	8c#	16ee	16gg	.	16ee	16gg
.	.	16ff#	16aa	.	16ff#	16aa
=14	=14	=14	=14	=14	=14	=14
4DD	4d	4dd	4ff#	4DD	16dd	16ff#
.	.	.	.	.	16ff#	16aa
.	.	.	.	.	16ee	16gg
.	.	.	.	.	16ff#	16aa
2r	2r	2r	2r	2r	16dd	16ff#
.	.	.	.	.	16ff#	16aa
.	.	.	.	.	16ee	16gg
.	.	.	.	.	16ff#	16aa
.	.	.	.	.	16dd	16ff#
.	.	.	.	.	16ff#	16aa
.	.	.	.	.	16ee	16gg
.	.	.	.	.	16ff#	16aa
=15	=15	=15	=15	=15	=15	=15
4B	4f#	8dd	8ff#	4B	4dd	4ff#
.	.	8ff#	16dd	.	.	.
.	.	.	16ee	.	.	.
4D	4f#	8bb	16ff#	4D	2r	2r
.	.	.	16gg	.	.	.
.	.	8dd	16ff#	.	.	.
.	.	.	16gg	.	.	.
4F#	4f#	8cc#	16ee	4F#	.	.
.	.	.	16ff#	.	.	.
.	.	8aa#	16ee	.	.	.
.	.	.	16ff#	.	.	.
=16	=16	=16	=16	=16	=16	=16
4BB	4f#	4b	4dd	4BB	8bb	16ff#
.	.	.	.	.	.	16bb
.	.	.	.	.	8b	16aa
.	.	.	.	.	.	16bb
2r	2r	2r	2r	2r	8b	16ff#
.	.	.	.	.	.	16bb
.	.	.	.	.	8cc#	16aa
.	.	.	.	.	.	16bb
.	.	.	.	.	8dd#	16ff#
.	.	.	.	.	.	16bb
.	.	.	.	.	8b	16aa
.	.	.	.	.	.	16bb
=17	=17	=17	=17	=17	=17	=17
4e	4b	8g	8b	4e	4ee	4gg
.	.	8b	16g	.	.	.
.	.	.	16a	.	.	.
4G	4b	8ee	16b	4G	2r	2r
.	.	.	16cc	.	.	.
.	.	8g	16b	.	.	.
.	.	.	16cc	.	.	.
4B	4b	8f#	16a	4B	.	.
.	.	.	16b	.	.	.
.	.	8dd#	16a	.	.	.
.	.	.	16b	.	.	.
=18	=18	=18	=18	=18	=18	=18
4E	4b	4e	4g	4E	8ee	16b
.	.	.	.	.	.	16ee
.	.	.	.	.	8e	16dd
.	.	.	.	.	.	16ee
2r	2r	2r	2r	2r	8e	16b
.	.	.	.	.	.	16ee
.	.	.	.	.	8f#	16dd
.	.	.	.	.	.	16ee
.	.	.	.	.	8g#	16b
.	.	.	.	.	.	16ee
.	.	.	.	.	8e	16dd
.	.	.	.	.	.	16ee
=19	=19	=19	=19	=19	=19	=19
4A	4e	8cc#	8ee	4A	4a	4cc#
.	.	8ee	16cc#	.	.	.
.	.	.	16dd	.	.	.
4C#	4e	8aa	16ee	4C#	2r	2r
.	.	.	16ff#	.	.	.
.	.	8cc#	16ee	.	.	.
.	.	.	16ff#	.	.	.
4E	4e	8b	16dd	4E	.	.
.	.	.	16ee	.	.	.
.	.	8gg#	16dd	.	.	.
.	.	.	16ee	.	.	.
=20	=20	=20	=20	=20	=20	=20
4AA	4e	4a	4cc#	4AA	8aa	16aa
.	.	.	.	.	.	16ccc#
.	.	.	.	.	8cc#	16bb
.	.	.	.	.	.	16ccc#
2r	2r	2r	2r	2r	8cc#	16aa
.	.	.	.	.	.	16ccc#
.	.	.	.	.	8dd#	16bb
.	.	.	.	.	.	16ccc#
.	.	.	.	.	8ee#	16gg#
.	.	.	.	.	.	16ccc#
.	.	.	.	.	8cc#	16bb
.	.	.	.	.	.	16ccc#
=21	=21	=21	=21	=21	=21	=21
4f#	4cc#	8a	8cc#	4f#	4ff#	4aa
.	.	8cc#	16a	.	.	.
.	.	.	16b	.	.	.
4A	4cc#	8ff#	16cc#	4A	2r	2r
.	.	.	16dd	.	.	.
.	.	8a	16cc#	.	.	.
.	.	.	16dd	.	.	.
4c#	4cc#	8g#	16b	4c#	.	.
.	.	.	16cc#	.	.	.
.	.	8ee#	16b	.	.	.
.	.	.	16cc#	.	.	.
=22	=22	=22	=22	=22	=22	=22
4F#	4cc#	4f#	4a	4F#	8ff#	16cc#
.	.	.	.	.	.	16ff#
.	.	.	.	.	8f#	16ee
.	.	.	.	.	.	16ff#
2r	2r	2r	2r	2r	8f#	16cc#
.	.	.	.	.	.	16ff#
.	.	.	.	.	8g#	16ee
.	.	.	.	.	.	16ff#
.	.	.	.	.	8a#	16cc#
.	.	.	.	.	.	16ff#
.	.	.	.	.	8f#	16ee
.	.	.	.	.	.	16ff#
=23	=23	=23	=23	=23	=23	=23
4B	4b	8dd#	16ff#	4B	4b	4dd#
.	.	.	16bb	.	.	.
.	.	8ff#	16ff#	.	.	.
.	.	.	16bb	.	.	.
4D#	4b	8bb	16ff#	4D#	2r	2r
.	.	.	16bb	.	.	.
.	.	8ff#	16aa	.	.	.
.	.	.	16bb	.	.	.
4BB	4b	8b	16ff#	4BB	.	.
.	.	.	16bb	.	.	.
.	.	8dd#	16aa	.	.	.
.	.	.	16bb	.	.	.
=24	=24	=24	=24	=24	=24	=24
4E	4b	4ee	4gg	4E	8ee	16b
.	.	.	.	.	.	16ee
.	.	.	.	.	8e	16dd
.	.	.	.	.	.	16ee
2r	2r	2r	2r	2r	8e	16b
.	.	.	.	.	.	16ee
.	.	.	.	.	8f#	16dd
.	.	.	.	.	.	16ee
.	.	.	.	.	8g#	16b
.	.	.	.	.	.	16ee
.	.	.	.	.	8e	16dd
.	.	.	.	.	.	16ee
=25	=25	=25	=25	=25	=25	=25
4A	4a	8cc#	16ee	4A	4a	4cc#
.	.	.	16aa	.	.	.
.	.	8ee	16gg	.	.	.
.	.	.	16aa	.	.	.
4C#	4a	8aa	16ee	4C#	2r	2r
.	.	.	16aa	.	.	.
.	.	8ee	16gg	.	.	.
.	.	.	16aa	.	.	.
4AA	4a	8a	16ee	4AA	.	.
.	.	.	16aa	.	.	.
.	.	8cc#	16gg	.	.	.
.	.	.	16aa	.	.	.
=26	=26	=26	=26	=26	=26	=26
4D	4a	8dd	16ff#	4D	8dd	16a
.	.	.	16dd	.	.	16dd
.	.	8d	16cc#	.	8d	16cc#
.	.	.	16dd	.	.	16dd
4DD	4f#	8d	16a	4DD	8d	16a
.	.	.	16dd	.	.	16dd
.	.	8e	16cc#	.	8e	16cc#
.	.	.	16dd	.	.	16dd
4r	4d	8f#	16a	4r	8f#	16a
.	.	.	16dd	.	.	16dd
.	.	8d	16cc#	.	8d	16cc#
.	.	.	16dd	.	.	16dd
=27	=27	=27	=27	=27	=27	=27
4G	4r	4g	16b	4G	4g	16b
.	.	.	16ee	.	.	16ee
.	.	.	16dd	.	.	16dd
.	.	.	16ee	.	.	16ee
4GG	4g	4b	16b	4GG	4b	16b
.	.	.	16ee	.	.	16ee
.	.	.	16dd	.	.	16dd
.	.	.	16ee	.	.	16ee
4r	4e	4G	16b	4r	4G	16b
.	.	.	16ee	.	.	16ee
.	.	.	16dd	.	.	16dd
.	.	.	16ee	.	.	16ee
=28	=28	=28	=28	=28	=28	=28
4A	4r	4r	16cc#	4A	4r	16cc#
.	.	.	16ff#	.	.	16ff#
.	.	.	16ee	.	.	16ee
.	.	.	16ff#	.	.	16ff#
4AA	4a	4cc#	16cc#	4AA	4cc#	16cc#
.	.	.	16ff#	.	.	16ff#
.	.	.	16ee	.	.	16ee
.	.	.	16ff#	.	.	16ff#
4r	4f#	4A	16cc#	4r	4A	16cc#
.	.	.	16ff#	.	.	16ff#
.	.	.	16ee	.	.	16ee
.	.	.	16ff#	.	.	16ff#
=29	=29	=29	=29	=29	=29	=29
4B	4r	4r	16dd	4B	4r	16dd
.	.	.	16gg	.	.	16gg
.	.	.	16ff#	.	.	16ff#
.	.	.	16gg	.	.	16gg
4BB	4b	4dd	16dd	4BB	4dd	16dd
.	.	.	16gg	.	.	16gg
.	.	.	16ff#	.	.	16ff#
.	.	.	16gg	.	.	16gg
4r	4g	4B	16dd	4r	4B	16dd
.	.	.	16gg	.	.	16gg
.	.	.	16ff#	.	.	16ff#
.	.	.	16gg	.	.	16gg
=30	=30	=30	=30	=30	=30	=30
4c#	4r	4r	16ee	4c#	4r	16ee
.	.	.	16aa	.	.	16aa
.	.	.	16gg	.	.	16gg
.	.	.	16aa	.	.	16aa
4C#	4cc#	4ee	16ee	4C#	4ee	16ee
.	.	.	16aa	.	.	16aa
.	.	.	16gg	.	.	16gg
.	.	.	16aa	.	.	16aa
4r	4a	4c#	16ee	4r	4c#	16ee
.	.	.	16aa	.	.	16aa
.	.	.	16gg	.	.	16gg
.	.	.	16aa	.	.	16aa
=31	=31	=31	=31	=31	=31	=31
4d	4a	4d	8ff#	4d	4d	8ff#
.	.	.	16d	.	.	16d
.	.	.	16d	.	.	16d
4D	4f#	2r	8d	4D	2r	8d
.	.	.	8d	.	.	8d
4r	4r	.	8d	4r	.	8d
.	.	.	8d	.	.	8d
=32	=32	=32	=32	=32	=32	=32
2.r	2.r	8ff#	8d	2.r	8ff#	8d
.	.	16d	16f#	.	16d	16f#
.	.	16d	16f#	.	16d	16f#
.	.	8d	8f#	.	8d	8f#
.	.	8d	8f#	.	8d	8f#
.	.	8d	8f#	.	8d	8f#
.	.	8d	8f#	.	8d	8f#
=33	=33	=33	=33	=33	=33	=33
8d	4dd	8d	8f#	8d	8d	8f#
16D	.	16f#	16a	16D	16f#	16a
16D	.	16f#	16a	16D	16f#	16a
8D	4f#	8f#	8a	8D	8f#	8a
8D	.	8f#	8a	8D	8f#	8a
8D	4d	8f#	8a	8D	8f#	8a
8D	.	8f#	8a	8D	8f#	8a
=34	=34	=34	=34	=34	=34	=34
8D	8dd	8f#	4dd	8D	8f#	16dd
.	.	.	.	.	.	16a
16F#	16d	16a	.	16F#	16a	16dd
16F#	16d	16a	.	16F#	16a	16a
8F#	8d	8a	4d	8F#	8a	16dd
.	.	.	.	.	.	16a
8F#	8d	8a	.	8F#	8a	16dd
.	.	.	.	.	.	16a
8F#	8d	8a	4r	8F#	8a	16dd
.	.	.	.	.	.	16a
8F#	8d	8a	.	8F#	8a	16dd
.	.	.	.	.	.	16a
=35	=35	=35	=35	=35	=35	=35
8F#	8d	4dd	4ff#	8F#	16dd	16ff#
.	.	.	.	.	16a	16dd
16D	8a	.	.	16D	16dd	16ff#
16D	.	.	.	16D	16a	16dd
8D	8f#	4d	4f#	8D	16dd	16ff#
.	.	.	.	.	16a	16dd
8D	8a	.	.	8D	16dd	16ff#
.	.	.	.	.	16a	16dd
8D	8f#	4r	4r	8D	16dd	16ff#
.	.	.	.	.	16a	16dd
8D	8a	.	.	8D	16dd	16ff#
.	.	.	.	.	16a	16dd
=36	=36	=36	=36	=36	=36	=36
4d	4d	4ff#	4aa	4d	16ff#	16aa
.	.	.	.	.	16dd	16ff#
.	.	.	.	.	16ff#	16aa
.	.	.	.	.	16dd	16ff#
4D	4A	4a	4f#	4D	16ff#	16aa
.	.	.	.	.	16dd	16ff#
.	.	.	.	.	16ff#	16aa
.	.	.	.	.	16dd	16ff#
4r	4r	4r	4r	4r	16ff#	16aa
.	.	.	.	.	16dd	16ff#
.	.	.	.	.	16ff#	16aa
.	.	.	.	.	16dd	16ff#
=37	=37	=37	=37	=37	=37	=37
4D	4a	4dd	4ff#	4D	16aa	16ddd
.	.	.	.	.	16ff#	16aa
.	.	.	.	.	16aa	16ddd
.	.	.	.	.	16ff#	16aa
4DD	4f#	4f#	4d	4DD	16aa	16ddd
.	.	.	.	.	16ff#	16aa
.	.	.	.	.	16aa	16ddd
.	.	.	.	.	16ff#	16aa
4r	4r	4r	4r	4r	16aa	16ddd
.	.	.	.	.	16ff#	16aa
.	.	.	.	.	16aa	16ddd
.	.	.	.	.	16ff#	16aa
=38	=38	=38	=38	=38	=38	=38
4d	4dd	4ff#	4aa	4d	16ddd	16ff#
.	.	.	.	.	16aa	16aa
.	.	.	.	.	16ddd	16ff#
.	.	.	.	.	16aa	16aa
4D	4a	4a	4f#	4D	16ddd	16ff#
.	.	.	.	.	16aa	16aa
.	.	.	.	.	16ddd	16ff#
.	.	.	.	.	16aa	16aa
4r	4r	4r	4r	4r	16ddd	16ff#
.	.	.	.	.	16aa	16aa
.	.	.	.	.	16ddd	16ff#
.	.	.	.	.	16aa	16aa
=39	=39	=39	=39	=39	=39	=39
4D	4f#	4dd	16dd	4D	16ff#	16dd
.	.	.	16d	.	16aa	16ff#
.	.	.	16d	.	16ff#	16dd
.	.	.	16d	.	16aa	16ff#
4DD	4a	4f#	16d	4DD	16ff#	16dd
.	.	.	16d	.	16aa	16ff#
.	.	.	16d	.	16ff#	16dd
.	.	.	16d	.	16aa	16ff#
4r	4r	4r	16d	4r	16ff#	16dd
.	.	.	16d	.	16aa	16ff#
.	.	.	16d	.	16ff#	16dd
.	.	.	16d	.	16aa	16ff#
=40	=40	=40	=40	=40	=40	=40
4d	4f#	16dd	16d	4d	16dd	16a
.	.	16d	16f#	.	16ff#	16dd
.	.	16d	16f#	.	16dd	16a
.	.	16d	16f#	.	16ff#	16dd
4D	4a	16d	16f#	4D	16dd	16a
.	.	16d	16f#	.	16ff#	16dd
.	.	16d	16f#	.	16dd	16a
.	.	16d	16f#	.	16ff#	16dd
4r	4r	16d	16f#	4r	16dd	16a
.	.	16d	16f#	.	16ff#	16dd
.	.	16d	16f#	.	16dd	16a
.	.	16d	16f#	.	16ff#	16dd
=41	=41	=41	=41	=41	=41	=41
16d	16f#	16d	16f#	16d	16a	16f#
16D	16d	16f#	16a	16D	16dd	16a
16D	16d	16f#	16a	16D	16a	16f#
16D	16d	16f#	16a	16D	16dd	16a
16D	16d	16f#	16a	16D	16a	16f#
16D	16d	16f#	16a	16D	16dd	16a
16D	16d	16f#	16a	16D	16a	16f#
16D	16d	16f#	16a	16D	16dd	16a
16D	16d	16f#	16a	16D	16a	16f#
16D	16d	16f#	16a	16D	16dd	16a
16D	16d	16f#	16a	16D	16a	16f#
16D	16d	16f#	16a	16D	16dd	16a
=42	=42	=42	=42	=42	=42	=42
16d	16f#	16a	16dd	16d	16f#	16d
16D	16d	16f#	16a	16D	16a	16f#
16D	16d	16f#	16a	16D	16f#	16d
16D	16d	16f#	16a	16D	16a	16f#
16D	16d	16f#	16a	16D	16f#	16d
16D	16d	16f#	16a	16D	16a	16f#
16D	16d	16f#	16a	16D	16f#	16d
16D	16d	16f#	16a	16D	16a	16f#
16D	16d	16f#	16a	16D	16f#	16d
16D	16d	16f#	16a	16D	16a	16f#
16D	16d	16f#	16a	16D	16f#	16d
16D	16d	16f#	16a	16D	16a	16f#
=43	=43	=43	=43	=43	=43	=43
2GG#	2B	2e	2b	2GG#	2e	2b
4r	4r	4r	4r	4r	4r	4r
=44	=44	=44	=44	=44	=44	=44
2r	2r	2r	2r	2r	2r	2r
4AA#	4f#	4f#	4cc#	4AA#	4f#	4cc#
=45	=45	=45	=45	=45	=45	=45
2BB	2B	2f#	2dd	2BB	2f#	2dd
4r	4r	4r	4r	4r	4r	4r
=46	=46	=46	=46	=46	=46	=46
2r	2r	2r	2r	2r	2r	2r
4GG	4B	4d	4b	4GG	4d	4b
=47	=47	=47	=47	=47	=47	=47
2AA	2A	2c#	2e	2AA	2c#	2e
4DD	4A	4d	4f#	4DD	4d	4f#
=48	=48	=48	=48	=48	=48	=48
2.AA	2.A	2.c#	2.e	2.AA	2.c#	2.e
=49	=49	=49	=49	=49	=49	=49
2.r	2.r	2.r	2.r	4d	4aa	4ff#
.	.	.	.	4.D	4.aa	4.ff#
.	.	.	.	8D	8aa	8ff#
=50	=50	=50	=50	=50	=50	=50
2.r	2.r	2.r	2.r	4G	4b	4ff#
.	.	.	.	4.G	4.cc#	4.ee
.	.	.	.	8F#	8dd	8aa
=51	=51	=51	=51	=51	=51	=51
2.r	2.r	2.r	2.r	4G	4dd	8bb
.	.	.	.	.	.	8ee
.	.	.	.	4A	4.dd	2ee
.	.	.	.	4AA	.	.
.	.	.	.	.	8cc#	.
=52	=52	=52	=52	=52	=52	=52
2.r	2.r	2.r	2.r	2.D	2.dd	2.dd
=53	=53	=53	=53	=53	=53	=53
4d	4a	4dd	4ff#	4d	4dd	4ff#
4A	4a	4cc#	4ee	4A	4cc#	4ee
4r	4r	4r	4r	4r	4r	4r
=54	=54	=54	=54	=54	=54	=54
2.r	2.r	2.r	2.r	4D	4dd	4ff#
.	.	.	.	4A	4cc#	4ee
.	.	.	.	4r	4r	4r
=55	=55	=55	=55	=55	=55	=55
4B	4f#	4b	4dd	4B	4b	4dd
4F#	4f#	4a#	4cc#	4F#	4a#	4cc#
4r	4r	4r	4r	4r	4r	4r
=56	=56	=56	=56	=56	=56	=56
2.r	2.r	2.r	2.r	4BB	4b	4dd
.	.	.	.	4F#	4a#	4cc#
.	.	.	.	4r	4r	4r
=57	=57	=57	=57	=57	=57	=57
4d	4d	4aa	4ff#	4d	4aa	4ff#
4.D	4.d	4.aa	4.ff#	4.D	4.aa	4.ff#
8D	8d	8aa	8ff#	8D	8aa	8ff#
=58	=58	=58	=58	=58	=58	=58
4G	4d	4b	4ff#	4G	4b	4ff#
4.G	4.a	4.cc#	4.ee	4.G	4.cc#	4.ee
8F#	8d	8dd	8aa	8F#	8dd	8aa
=59	=59	=59	=59	=59	=59	=59
4G	4B	4dd	8bb	4G	4dd	8bb
.	.	.	8ee	.	.	8ee
4A	4.A	4.dd	2ee	4A	4.dd	2ee
4AA	.	.	.	4AA	.	.
.	8a	8cc#	.	.	8cc#	.
=60	=60	=60	=60	=60	=60	=60
2D	2f#	2dd	2dd	2D	2dd	2dd
8r	8r	8r	8r	8r	8r	8r
8FF#	8f#	8d	8a	8FF#	8d	8a
=61	=61	=61	=61	=61	=61	=61
4GG	4e	4d	4b	4GG	4d	4b
2AA	4.a	4.d	4.e	2AA	4.d	4.e
.	8A	8c#	8a	.	8c#	8a
=62	=62	=62	=62	=62	=62	=62
2.DD	2.A	2.d	2.f#	2.DD	2.d	2.f#
==	==	==	==	==	==	==
*-	*-	*-	*-	*-	*-	*-
!!!RWG: This file only contains pitch and duration data.
!!!RWG: Transposing instruments are not transposed.
!!!RWG: Durations of rests and tied notes may be interpreted.
!!!RWG: Key is interpreted using the Humdrum key tool.
!!!SCA: 
!!!YOR: Chrysander Edition
!!!AGN: concerto grosso
!!!AFT: stage1
!!!ENC: F. Bennion
!!!END: 1997/04/15
!!!AST: baroque
!!!YEC: Copyright 1994, Center for Computer Assisted Research in the Humanities
!!!YEM: Rights to all derivative electronic formats reserved.
!!!YEM: Refer to licensing agreement for further details.
!!!YEN: United States of America
!!!EED: W.B. Hewlett
!!!KEY: 494727603
!!!EMD: Converted from MuseData to Humdrum Aug 9, 1999, by Bret Aarden using muse2kern.
!!!VTS: 4147445829
